!!!SOCIAL_FUNCTION:	songs with treatment of the sick
!!!PDT:	1943
!!!OTL: No_26_Song_of_a_Medicine_Man_at_Carmanah.krn
!!!REG: British Columbia
**kern	**kern
*staff2	*staff1
=1-	=1-
*clefF4	*clefF4
*k[b-]	*k[b-]
*M2/4	*M2/4
8GG/L	[2A\
8GG/J	.
8GG/L	.
8GG/J	.
=2	=2
8GG/L	4A\]
8GG/J	.
4r	8F\
.	16r
.	16c\
=3||	=3||
*M3/4	*M3/4
2.r	8A\
.	16r
.	16A\
.	8F\
.	16r
.	16c\
.	8A\
.	8r
=4||	=4||
*M2/4	*M2/4
2r	[2A\
=5	=5
2r	4A\]
.	4F\
=6	=6
2r	4A\
.	8F\
.	16r
.	16F\
=7	=7
2r	8F\
.	16r
.	16c\
.	8A\
.	8r
=8	=8
2r	[2A\
=9	=9
2r	4A\]
.	8F\
.	16r
.	16c\
=10||	=10||
*M3/4	*M3/4
2.r	8A\
.	16r
.	16A\
.	8F\
.	16r
.	16c\
.	8A\
.	8r
=11||	=11||
*M2/4	*M2/4
2r	[2A\
=12	=12
2r	4A\]
.	4F\
=13	=13
2r	8.A\L
.	16B-\Jk
.	8A\
.	16r
.	16F\
=14	=14
2r	8F\
.	16r
.	16c\
.	8A\
.	8r
=15	=15
2r	[2A\
=16	=16
2r	4A\]
.	8F\
.	16r
.	16c\
=17||	=17||
*M3/4	*M3/4
2.r	8A\
.	16r
.	16A\
.	8F\
.	16r
.	16c\
.	8A\
.	8r
=18||	=18||
*M2/4	*M2/4
2r	[2A\
=19	=19
2r	4A\]
.	4F\
=20	=20
2r	8.A\L
.	16c\Jk
.	8A\
.	16r
.	16A\
=21	=21
2r	8F\
.	16r
.	16c\
.	8A\
.	8r
=22	=22
2r	2A\
=23	=23
2r	4F\
.	4r
==	==
*-	*-
